packages/sources/icons/src/vitamix/money-euro-box-line.svg

<svg width="16" height="16" viewBox="0 0 16 16" fill="none" xmlns="http://www.w3.org/2000/svg">
<path fill-rule="evenodd" clip-rule="evenodd" d="M1.99999 2H14C14.3682 2 14.6667 2.29848 14.6667 2.66667V13.3333C14.6667 13.7015 14.3682 14 14 14H1.99999C1.63181 14 1.33333 13.7015 1.33333 13.3333V2.66667C1.33333 2.29848 1.63181 2 1.99999 2ZM2.66666 3.33333V12.6667H13.3333V3.33333H2.66666ZM10 7.33334H6.7C6.81749 6.75645 7.23062 6.28435 7.78683 6.09137C8.34304 5.8984 8.95979 6.01318 9.40933 6.39334L10.5433 5.638C9.74811 4.7713 8.51975 4.44927 7.40161 4.81438C6.28346 5.17949 5.48184 6.16435 5.35133 7.33334H4.66666V8.66667H5.35199C5.48295 9.83505 6.28432 10.8192 7.40191 11.1843C8.5195 11.5493 9.74731 11.2278 10.5427 10.362L9.40933 9.60667C8.95979 9.98682 8.34304 10.1016 7.78683 9.90863C7.23062 9.71566 6.81749 9.24356 6.7 8.66667H10V7.33334Z" fill="#001018"/>
</svg>

<svg width="16" height="16" fill="none" xmlns="http://www.w3.org/2000/svg"><path fill-rule="evenodd" clip-rule="evenodd" d="M2 2h12c.368 0 .667.298.667.667v10.666A.667.667 0 0 1 14 14H2a.667.667 0 0 1-.667-.667V2.667C1.333 2.298 1.632 2 2 2zm.667 1.333v9.334h10.666V3.333H2.667zm7.333 4H6.7a1.667 1.667 0 0 1 2.71-.94l1.133-.755a3 3 0 0 0-5.192 1.695h-.684v1.334h.685a3 3 0 0 0 5.19 1.695L9.41 9.607a1.667 1.667 0 0 1-2.709-.94H10V7.333z" fill="#001018"/></svg>
